Newaita-dark/.places-mint/32/folder-unlocked.svg

<?xml version="1.0" encoding="UTF-8"?>
<svg xmlns="http://www.w3.org/2000/svg" xmlns:xlink="http://www.w3.org/1999/xlink" width="32px" height="32px" viewBox="0 0 32 32" version="1.1">
<defs>
<linearGradient id="linear0" gradientUnits="userSpaceOnUse" x1="254" y1="233.5" x2="254" y2="254.666672" gradientTransform="matrix(0.062506,0,0,0.062506,-0.00000381506,13.438787)">
<stop offset="0" style="stop-color:rgb(0%,0%,0%);stop-opacity:0.27451;"/>
<stop offset="1" style="stop-color:rgb(0%,0%,0%);stop-opacity:0;"/>
</linearGradient>
<radialGradient id="radial0" gradientUnits="userSpaceOnUse" cx="450.908936" cy="189.579361" fx="450.908936" fy="189.579361" r="21.166656" gradientTransform="matrix(0.00000017417,-0.0781325,-0.140638,-0.000000101539,54.115213,63.595334)">
<stop offset="0" style="stop-color:rgb(0%,0%,0%);stop-opacity:0.313726;"/>
<stop offset="0.222222" style="stop-color:rgb(0%,0%,0%);stop-opacity:0.27451;"/>
<stop offset="1" style="stop-color:rgb(0%,0%,0%);stop-opacity:0;"/>
</radialGradient>
<radialGradient id="radial1" gradientUnits="userSpaceOnUse" cx="450.908936" cy="189.579361" fx="450.908936" fy="189.579361" r="21.166656" gradientTransform="matrix(-0.00000017417,0.0781325,0.140638,0.000000101539,-22.362178,-7.527477)">
<stop offset="0" style="stop-color:rgb(0%,0%,0%);stop-opacity:0.313726;"/>
<stop offset="0.222222" style="stop-color:rgb(0%,0%,0%);stop-opacity:0.27451;"/>
<stop offset="1" style="stop-color:rgb(0%,0%,0%);stop-opacity:0;"/>
</radialGradient>
<radialGradient id="radial2" gradientUnits="userSpaceOnUse" cx="450.908936" cy="189.579361" fx="450.908936" fy="189.579361" r="21.166656" gradientTransform="matrix(-0.00000017417,-0.0781325,0.140638,-0.000000101539,-22.362178,63.595334)">
<stop offset="0" style="stop-color:rgb(0%,0%,0%);stop-opacity:0.313726;"/>
<stop offset="0.222222" style="stop-color:rgb(0%,0%,0%);stop-opacity:0.27451;"/>
<stop offset="1" style="stop-color:rgb(0%,0%,0%);stop-opacity:0;"/>
</radialGradient>
<radialGradient id="radial3" gradientUnits="userSpaceOnUse" cx="450.908936" cy="189.579361" fx="450.908936" fy="189.579361" r="21.166656" gradientTransform="matrix(0.00000017417,0.0781325,-0.140638,0.000000101539,54.115211,-7.527477)">
<stop offset="0" style="stop-color:rgb(0%,0%,0%);stop-opacity:0.313726;"/>
<stop offset="0.222222" style="stop-color:rgb(0%,0%,0%);stop-opacity:0.27451;"/>
<stop offset="1" style="stop-color:rgb(0%,0%,0%);stop-opacity:0;"/>
</radialGradient>
<linearGradient id="linear1" gradientUnits="userSpaceOnUse" x1="254" y1="-147.5" x2="254" y2="-31.083334" gradientTransform="matrix(0.062506,0,0,0.062506,0.00000124975,13.438781)">
<stop offset="0" style="stop-color:rgb(64.313728%,64.313728%,64.313728%);stop-opacity:0;"/>
<stop offset="1" style="stop-color:rgb(100%,100%,100%);stop-opacity:0.196078;"/>
</linearGradient>
<linearGradient id="linear2" gradientUnits="userSpaceOnUse" x1="254" y1="233.5" x2="254" y2="-105.166656" gradientTransform="matrix(0.062506,0,0,0.062506,-0.00000181239,13.438783)">
<stop offset="0" style="stop-color:rgb(34.509805%,34.509805%,34.509805%);stop-opacity:0;"/>
<stop offset="1" style="stop-color:rgb(98.039216%,98.039216%,98.039216%);stop-opacity:0.196078;"/>
</linearGradient>
</defs>
<g id="surface1">
<path style=" stroke:none;fill-rule:nonzero;fill:url(#linear0);" d="M 3.96875 28.035156 L 27.785156 28.035156 L 27.785156 29.355469 L 3.96875 29.355469 Z M 3.96875 28.035156 "/>
<path style=" stroke:none;fill-rule:nonzero;fill:url(#radial0);" d="M 27.785156 28.035156 L 30.429688 28.035156 L 30.429688 26.710938 L 27.785156 26.710938 Z M 27.785156 28.035156 "/>
<path style=" stroke:none;fill-rule:nonzero;fill:url(#radial1);" d="M 3.96875 28.035156 L 1.324219 28.035156 L 1.324219 29.355469 L 3.96875 29.355469 Z M 3.96875 28.035156 "/>
<path style=" stroke:none;fill-rule:nonzero;fill:url(#radial2);" d="M 3.96875 28.035156 L 1.324219 28.035156 L 1.324219 26.710938 L 3.96875 26.710938 Z M 3.96875 28.035156 "/>
<path style=" stroke:none;fill-rule:nonzero;fill:url(#radial3);" d="M 27.785156 28.035156 L 30.429688 28.035156 L 30.429688 29.355469 L 27.785156 29.355469 Z M 27.785156 28.035156 "/>
<path style=" stroke:none;fill-rule:nonzero;fill:rgb(61.176473%,80.000001%,39.607844%);fill-opacity:1;" d="M 7.277344 4.21875 L 28.777344 4.21875 C 29.507812 4.21875 30.097656 4.8125 30.097656 5.542969 L 30.097656 10.503906 C 30.097656 11.234375 29.507812 11.828125 28.777344 11.828125 L 7.277344 11.828125 C 6.546875 11.828125 5.953125 11.234375 5.953125 10.503906 L 5.953125 5.542969 C 5.953125 4.8125 6.546875 4.21875 7.277344 4.21875 Z M 7.277344 4.21875 "/>
<path style=" stroke:none;fill-rule:nonzero;fill:url(#linear1);" d="M 7.277344 4.21875 L 28.777344 4.21875 C 29.507812 4.21875 30.097656 4.8125 30.097656 5.542969 L 30.097656 10.503906 C 30.097656 11.234375 29.507812 11.828125 28.777344 11.828125 L 7.277344 11.828125 C 6.546875 11.828125 5.953125 11.234375 5.953125 10.503906 L 5.953125 5.542969 C 5.953125 4.8125 6.546875 4.21875 7.277344 4.21875 Z M 7.277344 4.21875 "/>
<path style=" stroke:none;fill-rule:nonzero;fill:rgb(100%,100%,100%);fill-opacity:0.392157;" d="M 7.277344 4.300781 C 6.542969 4.300781 5.953125 4.890625 5.953125 5.625 L 5.953125 5.789062 C 5.953125 5.058594 6.542969 4.46875 7.277344 4.46875 L 28.777344 4.46875 C 29.507812 4.46875 30.097656 5.058594 30.097656 5.789062 L 30.097656 5.625 C 30.097656 4.890625 29.507812 4.300781 28.777344 4.300781 Z M 7.277344 4.300781 "/>
<path style=" stroke:none;fill-rule:nonzero;fill:rgb(12.941177%,12.941177%,12.941177%);fill-opacity:1;" d="M 7.277344 4.125 C 6.492188 4.125 5.859375 4.757812 5.859375 5.542969 L 5.859375 10.503906 C 5.859375 11.285156 6.492188 11.921875 7.277344 11.921875 L 28.777344 11.921875 C 29.558594 11.921875 30.191406 11.285156 30.191406 10.503906 L 30.191406 5.542969 C 30.191406 4.757812 29.558594 4.125 28.777344 4.125 Z M 7.277344 4.3125 L 28.777344 4.3125 C 29.457031 4.3125 30.003906 4.859375 30.003906 5.542969 L 30.003906 10.503906 C 30.003906 11.1875 29.457031 11.734375 28.777344 11.734375 L 7.277344 11.734375 C 6.59375 11.734375 6.046875 11.1875 6.046875 10.503906 L 6.046875 5.542969 C 6.046875 4.859375 6.59375 4.3125 7.277344 4.3125 Z M 7.277344 4.3125 "/>
<path style=" stroke:none;fill-rule:nonzero;fill:rgb(68.235296%,83.529413%,50.588238%);fill-opacity:1;" d="M 2.644531 6.863281 C 1.914062 6.863281 1.324219 7.457031 1.324219 8.1875 L 1.324219 26.710938 C 1.324219 27.445312 1.914062 28.035156 2.644531 28.035156 L 29.105469 28.035156 C 29.839844 28.035156 30.429688 27.445312 30.429688 26.710938 L 30.429688 10.171875 L 12.570312 10.171875 C 11.835938 10.171875 11.246094 9.582031 11.246094 8.851562 L 11.246094 6.863281 Z M 2.644531 6.863281 "/>
<path style=" stroke:none;fill-rule:nonzero;fill:url(#linear2);" d="M 2.644531 6.863281 C 1.914062 6.863281 1.324219 7.457031 1.324219 8.1875 L 1.324219 26.710938 C 1.324219 27.445312 1.914062 28.035156 2.644531 28.035156 L 29.105469 28.035156 C 29.839844 28.035156 30.429688 27.445312 30.429688 26.710938 L 30.429688 10.171875 L 12.570312 10.171875 C 11.835938 10.171875 11.246094 9.582031 11.246094 8.851562 L 11.246094 6.863281 Z M 2.644531 6.863281 "/>
<path style=" stroke:none;fill-rule:nonzero;fill:rgb(0%,0%,0%);fill-opacity:0.196078;" d="M 2.644531 28.035156 C 1.914062 28.035156 1.324219 27.445312 1.324219 26.710938 L 1.324219 26.546875 C 1.324219 27.277344 1.914062 27.867188 2.644531 27.867188 L 29.105469 27.867188 C 29.839844 27.867188 30.429688 27.277344 30.429688 26.546875 L 30.429688 26.710938 C 30.429688 27.445312 29.839844 28.035156 29.105469 28.035156 Z M 2.644531 28.035156 "/>
<path style=" stroke:none;fill-rule:nonzero;fill:rgb(100%,100%,100%);fill-opacity:0.392157;" d="M 2.644531 6.949219 C 1.914062 6.949219 1.324219 7.539062 1.324219 8.269531 L 1.324219 8.4375 C 1.324219 7.703125 1.914062 7.113281 2.644531 7.113281 L 11.246094 7.113281 L 11.246094 6.949219 Z M 2.644531 6.949219 "/>
<path style=" stroke:none;fill-rule:nonzero;fill:rgb(100%,100%,100%);fill-opacity:0.392157;" d="M 12.484375 10.339844 C 11.753906 10.339844 11.164062 9.75 11.164062 9.015625 L 11.164062 8.851562 C 11.164062 9.582031 11.753906 10.175781 12.484375 10.171875 L 30.429688 10.171875 L 30.429688 10.339844 Z M 12.484375 10.339844 "/>
<path style=" stroke:none;fill-rule:nonzero;fill:rgb(12.941177%,12.941177%,12.941177%);fill-opacity:1;" d="M 2.644531 6.769531 C 1.863281 6.769531 1.230469 7.40625 1.230469 8.1875 L 1.230469 26.710938 C 1.230469 27.496094 1.863281 28.128906 2.644531 28.128906 L 29.105469 28.128906 C 29.890625 28.128906 30.523438 27.496094 30.523438 26.710938 L 30.523438 9.984375 L 12.570312 9.984375 C 11.886719 9.984375 11.339844 9.4375 11.339844 8.757812 L 11.339844 6.769531 Z M 2.644531 6.960938 L 11.152344 6.960938 L 11.152344 8.757812 C 11.152344 9.539062 11.785156 10.171875 12.570312 10.171875 L 30.335938 10.171875 L 30.335938 26.710938 C 30.335938 27.394531 29.789062 27.941406 29.105469 27.941406 L 2.644531 27.941406 C 1.964844 27.941406 1.417969 27.394531 1.417969 26.710938 L 1.417969 8.1875 C 1.417969 7.503906 1.964844 6.960938 2.644531 6.960938 Z M 2.644531 6.960938 "/>
<path style=" stroke:none;fill-rule:nonzero;fill:rgb(54.509807%,76.47059%,29.019609%);fill-opacity:1;" d="M 15.875 12.820312 C 14.042969 12.820312 12.570312 14.292969 12.570312 16.125 L 12.570312 16.539062 L 12.574219 16.539062 C 12.570312 16.554688 12.570312 16.566406 12.570312 16.582031 C 12.570312 16.695312 12.660156 16.789062 12.777344 16.789062 L 13.683594 16.789062 C 13.800781 16.789062 13.890625 16.695312 13.890625 16.582031 C 13.890625 16.566406 13.890625 16.554688 13.886719 16.539062 L 13.890625 16.539062 L 13.890625 16.125 C 13.890625 15.027344 14.777344 14.140625 15.875 14.140625 C 16.976562 14.140625 17.859375 15.027344 17.859375 16.125 L 17.859375 18.109375 L 11.578125 18.109375 C 11.394531 18.109375 11.246094 18.257812 11.246094 18.441406 L 11.246094 23.074219 C 11.246094 23.253906 11.394531 23.402344 11.578125 23.402344 L 20.175781 23.402344 C 20.359375 23.402344 20.507812 23.253906 20.507812 23.074219 L 20.507812 18.441406 C 20.507812 18.257812 20.359375 18.109375 20.175781 18.109375 L 19.183594 18.109375 L 19.183594 16.125 C 19.183594 14.292969 17.707031 12.820312 15.875 12.820312 Z M 15.875 19.101562 C 16.425781 19.101562 16.867188 19.546875 16.867188 20.09375 C 16.867188 20.390625 16.742188 20.65625 16.539062 20.835938 L 16.539062 22.082031 C 16.539062 22.261719 16.390625 22.410156 16.207031 22.410156 L 15.546875 22.410156 C 15.363281 22.410156 15.214844 22.261719 15.214844 22.082031 L 15.214844 20.835938 C 15.011719 20.65625 14.882812 20.390625 14.882812 20.09375 C 14.882812 19.546875 15.328125 19.101562 15.875 19.101562 Z M 15.875 19.101562 "/>
<path style=" stroke:none;fill-rule:nonzero;fill:rgb(0%,0%,0%);fill-opacity:0.235294;" d="M 15.875 12.820312 C 14.042969 12.820312 12.570312 14.292969 12.570312 16.125 L 12.570312 16.375 C 12.570312 14.542969 14.042969 13.066406 15.875 13.066406 C 17.707031 13.066406 19.183594 14.542969 19.183594 16.375 L 19.183594 16.125 C 19.183594 14.292969 17.707031 12.820312 15.875 12.820312 Z M 11.578125 18.109375 C 11.394531 18.109375 11.246094 18.257812 11.246094 18.441406 L 11.246094 18.691406 C 11.246094 18.507812 11.394531 18.359375 11.578125 18.359375 L 17.859375 18.359375 L 17.859375 18.109375 Z M 19.183594 18.109375 L 19.183594 18.359375 L 20.175781 18.359375 C 20.359375 18.359375 20.507812 18.507812 20.507812 18.691406 L 20.507812 18.441406 C 20.507812 18.257812 20.359375 18.109375 20.175781 18.109375 Z M 14.890625 20.21875 C 14.886719 20.261719 14.882812 20.300781 14.882812 20.34375 C 14.882812 20.640625 15.011719 20.902344 15.214844 21.085938 L 15.214844 20.835938 C 15.039062 20.679688 14.921875 20.464844 14.890625 20.21875 Z M 16.859375 20.21875 C 16.832031 20.464844 16.710938 20.679688 16.539062 20.835938 L 16.539062 21.085938 C 16.742188 20.902344 16.867188 20.640625 16.867188 20.34375 C 16.867188 20.300781 16.867188 20.261719 16.859375 20.21875 Z M 15.214844 22.082031 L 15.214844 22.328125 C 15.214844 22.511719 15.363281 22.660156 15.546875 22.660156 L 16.207031 22.660156 C 16.390625 22.660156 16.539062 22.511719 16.539062 22.328125 L 16.539062 22.082031 C 16.539062 22.261719 16.390625 22.410156 16.207031 22.410156 L 15.546875 22.410156 C 15.363281 22.410156 15.214844 22.261719 15.214844 22.082031 Z M 15.214844 22.082031 "/>
<path style=" stroke:none;fill-rule:nonzero;fill:rgb(100%,100%,100%);fill-opacity:0.392157;" d="M 15.875 14.125 C 14.777344 14.125 13.890625 15.007812 13.890625 16.109375 L 13.890625 16.375 C 13.890625 15.273438 14.777344 14.390625 15.875 14.390625 C 16.976562 14.390625 17.859375 15.273438 17.859375 16.375 L 17.859375 16.109375 C 17.859375 15.007812 16.976562 14.125 15.875 14.125 Z M 12.570312 16.523438 L 12.570312 16.5625 C 12.570312 16.550781 12.570312 16.535156 12.574219 16.523438 Z M 12.570312 16.5625 L 12.570312 16.789062 L 12.574219 16.789062 C 12.570312 16.800781 12.570312 16.816406 12.570312 16.828125 C 12.570312 16.945312 12.660156 17.035156 12.777344 17.035156 L 13.683594 17.035156 C 13.800781 17.035156 13.890625 16.945312 13.890625 16.828125 C 13.890625 16.816406 13.890625 16.800781 13.886719 16.789062 L 13.890625 16.789062 L 13.890625 16.5625 C 13.890625 16.679688 13.800781 16.769531 13.683594 16.769531 L 12.777344 16.769531 C 12.660156 16.769531 12.570312 16.679688 12.570312 16.5625 Z M 13.890625 16.5625 L 13.890625 16.523438 L 13.886719 16.523438 C 13.890625 16.535156 13.890625 16.550781 13.890625 16.5625 Z M 15.875 19.085938 C 15.328125 19.085938 14.882812 19.527344 14.882812 20.078125 C 14.882812 20.121094 14.886719 20.167969 14.894531 20.210938 C 14.957031 19.722656 15.371094 19.351562 15.875 19.351562 C 16.382812 19.351562 16.796875 19.722656 16.859375 20.210938 C 16.867188 20.167969 16.867188 20.121094 16.867188 20.078125 C 16.867188 19.527344 16.425781 19.085938 15.875 19.085938 Z M 11.246094 23.054688 L 11.246094 23.320312 C 11.246094 23.503906 11.394531 23.652344 11.578125 23.652344 L 20.175781 23.652344 C 20.359375 23.652344 20.507812 23.503906 20.507812 23.320312 L 20.507812 23.054688 C 20.507812 23.238281 20.359375 23.386719 20.175781 23.386719 L 11.578125 23.386719 C 11.394531 23.386719 11.246094 23.238281 11.246094 23.054688 Z M 11.246094 23.054688 "/>
<path style=" stroke:none;fill-rule:nonzero;fill:rgb(12.941177%,12.941177%,12.941177%);fill-opacity:1;" d="M 15.875 12.726562 C 13.992188 12.726562 12.476562 14.242188 12.476562 16.125 L 12.476562 16.539062 C 12.476562 16.546875 12.476562 16.554688 12.476562 16.558594 C 12.476562 16.566406 12.476562 16.574219 12.476562 16.582031 C 12.476562 16.746094 12.609375 16.882812 12.777344 16.882812 L 13.683594 16.882812 C 13.851562 16.882812 13.984375 16.746094 13.984375 16.582031 C 13.984375 16.574219 13.984375 16.566406 13.984375 16.558594 C 13.984375 16.554688 13.984375 16.546875 13.984375 16.539062 L 13.984375 16.125 C 13.984375 15.078125 14.828125 14.234375 15.875 14.234375 C 16.925781 14.234375 17.765625 15.078125 17.765625 16.125 L 17.765625 18.015625 L 11.578125 18.015625 C 11.34375 18.015625 11.152344 18.207031 11.152344 18.441406 L 11.152344 23.074219 C 11.152344 23.304688 11.34375 23.496094 11.578125 23.496094 L 20.175781 23.496094 C 20.410156 23.496094 20.601562 23.304688 20.601562 23.074219 L 20.601562 18.441406 C 20.601562 18.207031 20.410156 18.015625 20.175781 18.015625 L 19.277344 18.015625 L 19.277344 16.125 C 19.277344 14.242188 17.757812 12.726562 15.875 12.726562 Z M 15.875 12.914062 C 17.660156 12.914062 19.089844 14.34375 19.089844 16.125 L 19.089844 18.109375 C 19.089844 18.164062 19.132812 18.203125 19.183594 18.203125 L 20.175781 18.203125 C 20.308594 18.203125 20.414062 18.308594 20.414062 18.441406 L 20.414062 23.074219 C 20.414062 23.207031 20.308594 23.308594 20.175781 23.308594 L 11.578125 23.308594 C 11.445312 23.308594 11.339844 23.207031 11.339844 23.074219 L 11.339844 18.441406 C 11.339844 18.308594 11.445312 18.203125 11.578125 18.203125 L 17.859375 18.203125 C 17.914062 18.203125 17.953125 18.164062 17.953125 18.109375 L 17.953125 16.125 C 17.953125 14.976562 17.027344 14.046875 15.875 14.046875 C 14.726562 14.046875 13.796875 14.976562 13.796875 16.125 L 13.796875 16.511719 C 13.792969 16.527344 13.792969 16.542969 13.796875 16.558594 C 13.796875 16.566406 13.796875 16.574219 13.796875 16.582031 C 13.796875 16.644531 13.75 16.695312 13.683594 16.695312 L 12.777344 16.695312 C 12.710938 16.695312 12.664062 16.644531 12.664062 16.582031 C 12.664062 16.574219 12.664062 16.566406 12.664062 16.558594 C 12.667969 16.542969 12.667969 16.527344 12.664062 16.511719 L 12.664062 16.125 C 12.664062 14.34375 14.09375 12.914062 15.875 12.914062 Z M 15.875 19.007812 C 15.277344 19.007812 14.789062 19.496094 14.789062 20.09375 C 14.789062 20.402344 14.917969 20.679688 15.121094 20.875 L 15.121094 22.082031 C 15.121094 22.3125 15.3125 22.503906 15.546875 22.503906 L 16.207031 22.503906 C 16.441406 22.503906 16.632812 22.3125 16.632812 22.082031 L 16.632812 20.875 C 16.835938 20.679688 16.960938 20.402344 16.960938 20.09375 C 16.960938 19.496094 16.476562 19.007812 15.875 19.007812 Z M 15.875 19.195312 C 16.375 19.195312 16.773438 19.597656 16.773438 20.09375 C 16.773438 20.363281 16.660156 20.601562 16.476562 20.765625 C 16.457031 20.785156 16.445312 20.808594 16.445312 20.835938 L 16.445312 22.082031 C 16.445312 22.214844 16.339844 22.316406 16.207031 22.316406 L 15.546875 22.316406 C 15.414062 22.316406 15.308594 22.214844 15.308594 22.082031 L 15.308594 20.835938 C 15.308594 20.808594 15.296875 20.785156 15.277344 20.765625 C 15.09375 20.601562 14.976562 20.363281 14.976562 20.09375 C 14.976562 19.597656 15.378906 19.195312 15.875 19.195312 Z M 15.875 19.195312 "/>
</g>
</svg>

<svg xmlns="http://www.w3.org/2000/svg" width="32" height="32"><defs><linearGradient id="a" gradientUnits="userSpaceOnUse" x1="254" y1="233.5" x2="254" y2="254.667" gradientTransform="matrix(.0625 0 0 .0625 0 13.439)"><stop offset="0" stop-opacity=".275"/><stop offset="1" stop-opacity="0"/></linearGradient><radialGradient id="b" gradientUnits="userSpaceOnUse" cx="450.909" cy="189.579" fx="450.909" fy="189.579" r="21.167" gradientTransform="matrix(0 -.07813 -.14064 0 54.115 63.595)"><stop offset="0" stop-opacity=".314"/><stop offset=".222" stop-opacity=".275"/><stop offset="1" stop-opacity="0"/></radialGradient><radialGradient id="c" gradientUnits="userSpaceOnUse" cx="450.909" cy="189.579" fx="450.909" fy="189.579" r="21.167" gradientTransform="matrix(0 .07813 .14064 0 -22.362 -7.527)"><stop offset="0" stop-opacity=".314"/><stop offset=".222" stop-opacity=".275"/><stop offset="1" stop-opacity="0"/></radialGradient><radialGradient id="d" gradientUnits="userSpaceOnUse" cx="450.909" cy="189.579" fx="450.909" fy="189.579" r="21.167" gradientTransform="matrix(0 -.07813 .14064 0 -22.362 63.595)"><stop offset="0" stop-opacity=".314"/><stop offset=".222" stop-opacity=".275"/><stop offset="1" stop-opacity="0"/></radialGradient><radialGradient id="e" gradientUnits="userSpaceOnUse" cx="450.909" cy="189.579" fx="450.909" fy="189.579" r="21.167" gradientTransform="matrix(0 .07813 -.14064 0 54.115 -7.527)"><stop offset="0" stop-opacity=".314"/><stop offset=".222" stop-opacity=".275"/><stop offset="1" stop-opacity="0"/></radialGradient><linearGradient id="f" gradientUnits="userSpaceOnUse" x1="254" y1="-147.5" x2="254" y2="-31.083" gradientTransform="matrix(.0625 0 0 .0625 0 13.439)"><stop offset="0" stop-color="#a4a4a4" stop-opacity="0"/><stop offset="1" stop-color="#fff" stop-opacity=".196"/></linearGradient><linearGradient id="g" gradientUnits="userSpaceOnUse" x1="254" y1="233.5" x2="254" y2="-105.167" gradientTransform="matrix(.0625 0 0 .0625 0 13.439)"><stop offset="0" stop-color="#585858" stop-opacity="0"/><stop offset="1" stop-color="#fafafa" stop-opacity=".196"/></linearGradient><linearGradient id="h" gradientUnits="userSpaceOnUse" x1="960" y1="255.118" x2="960" y2="1695.118"><stop offset="0" stop-color="#a4a4a4" stop-opacity="0"/><stop offset="1" stop-color="#fff" stop-opacity=".196"/></linearGradient></defs><path d="M3.969 28.035h23.816v1.32H3.97zm0 0" fill="url(#a)"/><path d="M27.785 28.035h2.645v-1.324h-2.645zm0 0" fill="url(#b)"/><path d="M3.969 28.035H1.324v1.32H3.97zm0 0" fill="url(#c)"/><path d="M3.969 28.035H1.324v-1.324H3.97zm0 0" fill="url(#d)"/><path d="M27.785 28.035h2.645v1.32h-2.645zm0 0" fill="url(#e)"/><path d="M7.277 4.219h21.5c.73 0 1.32.593 1.32 1.324v4.96c0 .731-.59 1.325-1.32 1.325h-21.5c-.73 0-1.324-.594-1.324-1.324V5.543c0-.73.594-1.324 1.324-1.324zm0 0" fill="#7cb342"/><path d="M7.277 4.219h21.5c.73 0 1.32.593 1.32 1.324v4.96c0 .731-.59 1.325-1.32 1.325h-21.5c-.73 0-1.324-.594-1.324-1.324V5.543c0-.73.594-1.324 1.324-1.324zm0 0" fill="url(#f)"/><path d="M7.277 4.219a1.32 1.32 0 0 0-1.324 1.324v.164c0-.734.59-1.324 1.324-1.324h21.5c.73 0 1.32.59 1.32 1.324v-.164a1.32 1.32 0 0 0-1.32-1.324zm0 0" fill="#e6e6e6" fill-opacity=".588"/><path d="M7.277 4.125c-.785 0-1.418.633-1.418 1.418v4.96c0 .782.633 1.419 1.418 1.419h21.5c.782 0 1.414-.637 1.414-1.418V5.543c0-.785-.632-1.418-1.414-1.418zm0 .188h21.5c.68 0 1.227.546 1.227 1.23v4.96c0 .684-.547 1.231-1.227 1.231h-21.5c-.683 0-1.23-.546-1.23-1.23V5.543c0-.684.547-1.23 1.23-1.23zm0 0" fill="#212121"/><path d="M2.645 6.863c-.73 0-1.32.594-1.32 1.324v18.524c0 .734.59 1.324 1.32 1.324h26.46a1.32 1.32 0 0 0 1.325-1.324V10.17H12.57a1.32 1.32 0 0 1-1.324-1.32V6.864zm0 0" fill="#9ccc65"/><path d="M2.645 6.863c-.73 0-1.32.594-1.32 1.324v18.524c0 .734.59 1.324 1.32 1.324h26.46a1.32 1.32 0 0 0 1.325-1.324V10.17H12.57a1.32 1.32 0 0 1-1.324-1.32V6.864zm0 0" fill="url(#g)"/><path d="M2.645 28.035c-.73 0-1.32-.59-1.32-1.324v-.164c0 .73.59 1.32 1.32 1.32h26.46a1.32 1.32 0 0 0 1.325-1.32v.164a1.32 1.32 0 0 1-1.325 1.324zm0 0" fill-opacity=".196"/><path d="M2.645 6.863c-.73 0-1.32.594-1.32 1.324v.168c0-.734.59-1.324 1.32-1.324h8.601v-.168zm0 0M12.484 10.254c-.73 0-1.32-.59-1.32-1.32v-.168c0 .734.59 1.324 1.32 1.324H30.43v.164zm0 0" fill="#e6e6e6" fill-opacity=".937"/><path d="M2.645 6.77c-.782 0-1.415.636-1.415 1.418V26.71c0 .785.633 1.418 1.415 1.418h26.46c.786 0 1.418-.633 1.418-1.418V9.984H12.57c-.683 0-1.23-.546-1.23-1.226V6.77zm0 .19h8.507v1.798c0 .781.633 1.414 1.418 1.414h17.766V26.71c0 .684-.547 1.23-1.23 1.23H2.644c-.68 0-1.227-.546-1.227-1.23V8.188c0-.684.547-1.227 1.227-1.227zm0 0" fill="#212121"/><path d="M15.875 12.82a3.296 3.296 0 0 0-3.305 3.305h1.32c0-1.098.887-1.984 1.985-1.984a1.98 1.98 0 0 1 1.984 1.984v1.984h-6.28a.332.332 0 0 0-.333.332v4.633c0 .18.149.328.332.328h8.598a.33.33 0 0 0 .332-.328v-4.633a.332.332 0 0 0-.332-.332h-.992v-1.984a3.3 3.3 0 0 0-3.309-3.305zm0 0" fill="#7cb342"/><path d="M959.908 775.202c-110.776 0-199.823 89.046-199.823 199.823h79.835c0-66.372 53.617-119.988 119.988-119.988 66.608 0 119.989 53.616 119.989 119.988v119.989H700.09c-11.102 0-20.077 8.975-20.077 20.076v280.131c0 10.865 8.975 19.84 20.077 19.84h519.871c11.102 0 20.077-8.975 20.077-19.84v-280.13c0-11.102-8.975-20.077-20.077-20.077h-59.994V975.025c0-110.777-89.283-199.823-200.06-199.823zm0 0" transform="rotate(.891) scale(.01654)" fill="url(#h)" stroke-width="11.339" stroke-linecap="round" stroke-linejoin="round" stroke="#212121"/></svg>
